!!!SOCIAL_FUNCTION:	klokali songs
!!!PDT:	1939
!!!OTL: No_49_Wand_Dance_Song_-_with_2nd_rendition_drums.krn
!!!LANG: Non-Tone
!!!LING_GROUP: Wakashan
!!!REG: Pacific Northwest
**kern	**kern
*staff2	*staff1
=1-	=1-
*clefF4	*clefF4
*k[f#c#g#d#a#]	*k[f#c#g#d#a#]
*M3/4	*M3/4
12GG#^/	2r
12r	.
12GG#/	.
12GG#^/	.
12r	.
12GG#/	.
12GG#^/	4d#\
12r	.
12GG#/	.
=2	=2
12GG#^/	4.d#\
12r	.
12GG#/	.
12GG#^/	.
12r	.
.	16B\
12GG#/	.
.	16r
12GG#^/	4c#\
12r	.
12GG#/	.
=3	=3
12GG#^/	4.B\
12r	.
12GG#/	.
12GG#^/	.
12r	.
.	8r
12GG#/	.
12GG#^/	4c##\
12r	.
12GG#/	.
=4	=4
12GG#^/	4.d#\
12r	.
12GG#/	.
12GG#^/	.
12r	.
.	16B\
12GG#/	.
.	16r
12GG#^/	4c#\
12r	.
12GG#/	.
=5||	=5||
*M2/4	*M2/4
12GG#^/	4.B\
12r	.
12GG#/	.
12GG#^/	.
12r	.
.	8r
12GG#/	.
=6	=6
12GG#^/	4d#\
12r	.
12GG#/	.
12GG#^/	8c#\L
12r	.
.	8B\J
12GG#/	.
=7	=7
12GG#^/	4B\
12r	.
12GG#/	.
12GG#^/	4d#\
12r	.
12GG#/	.
=8||	=8
*M3/4	*
--d	=
*	*M3/4
12GG#^/	8.c#\L
12r	.
12GG#/	.
.	16B\Jk
12GG#^/	4B\
12r	.
12GG#/	.
12GG#^/	8B\
12r	.
.	8r
12GG#/	.
=9	=9
12GG#^/	4c#\
12r	.
12GG#/	.
12GG#^/	8B\L
12r	.
.	8d#\J
12GG#/	.
12GG#^/	8d#\L
12r	.
.	8c#\J
12GG#/	.
=10||	=10||
*M2/4	*M2/4
12GG#^/	4.B\
12r	.
12GG#/	.
12GG#^/	.
12r	.
.	8r
12GG#/	.
=11	=11
12GG#^/	4d#\
12r	.
12GG#/	.
12GG#^/	8c#\L
12r	.
.	8B\J
12GG#/	.
=12	=12
12GG#^/	4B\
12r	.
12GG#/	.
12GG#^/	4d#\
12r	.
12GG#/	.
=13||	=13||
*M3/4	*M3/4
12GG#^/	4.c#\
12r	.
12GG#/	.
12GG#^/	.
12r	.
.	8B\
12GG#/	.
12GG#^/	8d#\L
12r	.
.	8c#\J
12GG#/	.
=14	=14
12GG#^/	2B\
12r	.
12GG#/	.
12GG#^/	.
12r	.
12GG#/	.
12GG#^/	4r
12r	.
12GG#/	.
==	==
*-	*-
